src/layers.svg

<?xml version="1.0" encoding="UTF-8" standalone="no"?>
<svg xmlns="http://www.w3.org/2000/svg" version="1.1" width="16" height="16">
  <path d="M7.75 1L1 4v1l6.75 3h.5L15 5V4L8.25 1h-.5zM1 7.25V9l6.75 3h.5L15 9V7.25l-6.75 3h-.5L1 7.25zm0 4V13l6.75 3h.5L15 13v-1.75l-6.75 3h-.5l-6.75-3z"/>
</svg>

<?xml version="1.0" encoding="UTF-8" standalone="no"?>
<svg
   xmlns:dc="http://purl.org/dc/elements/1.1/"
   xmlns:cc="http://creativecommons.org/ns#"
   xmlns:rdf="http://www.w3.org/1999/02/22-rdf-syntax-ns#"
   xmlns:svg="http://www.w3.org/2000/svg"
   xmlns="http://www.w3.org/2000/svg"
   id="svg4"
   height="16"
   width="16"
   version="1.1">
  <metadata
     id="metadata10">
    <rdf:RDF>
      <cc:Work
         rdf:about="">
        <dc:format>image/svg+xml</dc:format>
        <dc:type
           rdf:resource="http://purl.org/dc/dcmitype/StillImage" />
        <dc:title></dc:title>
      </cc:Work>
    </rdf:RDF>
  </metadata>
  <defs
     id="defs8" />
  <path
     id="path4549"
     d="M 7.75 1 L 1 4 L 1 5 L 7.75 8 L 8 8 L 8.25 8 L 15 5 L 15 4 L 8.25 1 L 8 1 L 7.75 1 z M 1 7.25 L 1 9 L 7.75 12 L 8 12 L 8.25 12 L 15 9 L 15 7.25 L 8.25 10.25 L 8 10.25 L 7.75 10.25 L 1 7.25 z M 1 11.25 L 1 13 L 7.75 16 L 8 16 L 8.25 16 L 15 13 L 15 11.25 L 8.25 14.25 L 8 14.25 L 7.75 14.25 L 1 11.25 z "
     style="fill:#000000;stroke:none;stroke-width:1px;stroke-linecap:butt;stroke-linejoin:miter;stroke-opacity:1" />
</svg>
